X:7306
T:The Sailor's Wife
O:england
M:6/8
L:1/8
C:Kerry Elkin
K:C
"Dm"DEF E2 D|Ade f2 g|agf "Dm"edc|"C"AcA GEC|"Dm"DEF E2 D|Ade f2
g|"Dm"agf "Am"edc|
1 d3 d3:|2 d3 d2 e||"Dm"fga fga|fga agf|"C"ecg ecg|ecg "Am"gfe|
"Dm"fga agf|"C"ecg g3|"Dm"afd "Am"gec|1 d3 d2 e:|2 d3 d3|


